X: 24436
T: Luachrachán's, The
R: jig
M: 6/8
K: Gmajor
|:g|edB dBA|GBG AGE|DEG AGA|BAA A2 g|
edB dBA|GBG AGE|DEG AGA|BGG G2:|
|:D|GBd g2 g|aga bge|gab age|deg a2 b|
age edB|GBG AGE|DEG AGA|BGG G2:|

